X:2192
T:Geogahan's
O:england
R:Reel
H:Learnt from Tom McGonigle, Belfast (concertina)
N:As played
S:Bernie Stocks, Belfast (fiddle)
M:4/4
K:G
{A}G2DG EGDE | GABG AE~E2 | G2DG EGAB |1 cedc BGAF :|2 cedc BGBd ||
gd(3.d.d.d edBA | BdBG AE{F}ED | gd(3.d.d.d edBA | Bdgd BGGz |
~g2fg edB2 | (3cBA BG AGED | ~c3d egfa | gedc BGAF || G4 ||


